X: 658
T: Da xiuqian
%%abc-version 2.0
%%abcx-abcm2ps-target-version 5.9.1 (29 Sep 2008)
%%abc-creator hum2abc beta
%%abcx-conversion-date 2013/10/02 07:52:30
%%abc-edited-by Helmut Schaffrath
%%humdrum-veritas 3505953314
%%humdrum-veritas-data 2574328209
%%continueall 1
%%barnumbers 0
L: 1/8
M: 2/4
K: A
c e c B [I:setbarnb 1]| 
c e c B | 
c e c B | 
cA3 | 
z c c c | 
B cA2 | 
BA2F | 
E4 | 
A FA2 | 
C EC2 | 
A FA2 | 
C EC2 | 
B> A B B | 
z c B c | 
B2A2 | 
B B C E | 
G FE2 |]  



